report_00007_2020-12-11T15:55:29.892Z/mainthread-work-breakdown/comparison/line/0_vs_1.svg

<svg width="640" height="500" xmlns="http://www.w3.org/2000/svg" xmlns:xlink="http://www.w3.org/1999/xlink"><path fill="#fff" d="M0 0h640v500H0z"/><defs><path id="d" stroke-width=".222" stroke="currentColor" d="M-1-1h2v2h-2z"/><path id="b" stroke-width=".222" stroke="currentColor" d="M0-1.33l-1.33 2h2.66z"/><path id="f" stroke-width=".222" stroke="currentColor" d="M0 1.33L1.265.411.782-1.067l-1.564-.009-.483 1.487z"/><use xlink:href="#b" id="c" stroke="currentColor" transform="rotate(180)"/><use xlink:href="#d" id="e" stroke="currentColor" transform="rotate(45)"/><circle id="a" stroke-width=".222" stroke="currentColor" cx="0" cy="0" r="1"/></defs><g fill="none" color="#000" stroke="currentColor"><path stroke="#000" d="M62.2 353.7h9m543.8 0h-9"/><text transform="translate(53.9 357.6)" stroke="none" fill="#000" font-family="Arial" font-size="12" text-anchor="end"><tspan>500</tspan></text></g><g fill="none" color="#000" stroke="currentColor"><path stroke="#000" d="M62.2 274.6h9m543.8 0h-9"/><text transform="translate(53.9 278.5)" stroke="none" fill="#000" font-family="Arial" font-size="12" text-anchor="end"><tspan>1000</tspan></text></g><g fill="none" color="#000" stroke="currentColor"><path stroke="#000" d="M62.2 195.6h9m543.8 0h-9"/><text transform="translate(53.9 199.5)" stroke="none" fill="#000" font-family="Arial" font-size="12" text-anchor="end"><tspan>1500</tspan></text></g><g fill="none" color="#000" stroke="currentColor"><path stroke="#000" d="M62.2 116.5h9m543.8 0h-9"/><text transform="translate(53.9 120.4)" stroke="none" fill="#000" font-family="Arial" font-size="12" text-anchor="end"><tspan>2000</tspan></text></g><g fill="none" color="#000" stroke="currentColor"><path stroke="#000" d="M62.2 37.4h9m543.8 0h-9"/><text transform="translate(53.9 41.3)" stroke="none" fill="#000" font-family="Arial" font-size="12" text-anchor="end"><tspan>2500</tspan></text></g><g fill="none" color="#000" stroke="currentColor"><path stroke="#000" d="M62.2 428v-9m0-400.9v9"/><text transform="translate(62.2 449.9)" stroke="none" fill="#000" font-family="Arial" font-size="12" text-anchor="middle"><tspan>0</tspan></text></g><g fill="none" color="#000" stroke="currentColor"><path stroke="#000" d="M118 428v-9m0-400.9v9"/><text transform="translate(118 449.9)" stroke="none" fill="#000" font-family="Arial" font-size="12" text-anchor="middle"><tspan>10</tspan></text></g><g fill="none" color="#000" stroke="currentColor"><path stroke="#000" d="M173.9 428v-9m0-400.9v9"/><text transform="translate(173.9 449.9)" stroke="none" fill="#000" font-family="Arial" font-size="12" text-anchor="middle"><tspan>20</tspan></text></g><g fill="none" color="#000" stroke="currentColor"><path stroke="#000" d="M229.7 428v-9m0-400.9v9"/><text transform="translate(229.7 449.9)" stroke="none" fill="#000" font-family="Arial" font-size="12" text-anchor="middle"><tspan>30</tspan></text></g><g fill="none" color="#000" stroke="currentColor"><path stroke="#000" d="M285.6 428v-9m0-400.9v9"/><text transform="translate(285.6 449.9)" stroke="none" fill="#000" font-family="Arial" font-size="12" text-anchor="middle"><tspan>40</tspan></text></g><g fill="none" color="#000" stroke="currentColor"><path stroke="#000" d="M341.4 428v-9m0-400.9v9"/><text transform="translate(341.4 449.9)" stroke="none" fill="#000" font-family="Arial" font-size="12" text-anchor="middle"><tspan>50</tspan></text></g><g fill="none" color="#000" stroke="currentColor"><path stroke="#000" d="M397.2 428v-9m0-400.9v9"/><text transform="translate(397.2 449.9)" stroke="none" fill="#000" font-family="Arial" font-size="12" text-anchor="middle"><tspan>60</tspan></text></g><g fill="none" color="#000" stroke="currentColor"><path stroke="#000" d="M453.1 428v-9m0-400.9v9"/><text transform="translate(453.1 449.9)" stroke="none" fill="#000" font-family="Arial" font-size="12" text-anchor="middle"><tspan>70</tspan></text></g><g fill="none" color="#000" stroke="currentColor"><path stroke="#000" d="M508.9 428v-9m0-400.9v9"/><text transform="translate(508.9 449.9)" stroke="none" fill="#000" font-family="Arial" font-size="12" text-anchor="middle"><tspan>80</tspan></text></g><g fill="none" color="#000" stroke="currentColor"><path stroke="#000" d="M564.7 428v-9m0-400.9v9"/><text transform="translate(564.7 449.9)" stroke="none" fill="#000" font-family="Arial" font-size="12" text-anchor="middle"><tspan>90</tspan></text></g><path stroke="#000" d="M62.2 18.1V428H615V18.1H62.2z" fill="none" color="#000"/><text transform="translate(279.8 467.9)" stroke="none" fill="#000" font-family="Arial" font-size="12" text-anchor="end" color="#000"><tspan>empty</tspan></text><path stroke="#9400D3" d="M288.1 464h42.2M62.2 419.3l5.6.5 5.6-.2 5.6-1.5 5.5 1.2 5.6.5h5.6l5.6-.4h5.6l5.6.1 5.5-.2 5.6.3 5.6-.1 5.6-1.1 5.6 1 5.6-.2 5.5.3h5.6l5.6.3 5.6-.4h5.6l5.6-.1 5.5.5 5.6-.3 5.6.3 5.6-.6 5.6.3 5.6.3 5.5-.6 5.6-.1 5.6-.5 5.6.8 5.6-.1 5.6-.1 5.6-.4 5.5-.1 5.6.1 5.6.5 5.6.7 5.6-.4 5.6-.2 5.5.4 5.6-.7 5.6.5 5.6-.2 5.6.2 5.6-.1 5.5-.6 5.6.2 5.6-2.6 5.6 2.4h5.6l5.6.2 5.5-.6 5.6.8 5.6.4 5.6.2 5.6-.4 5.6-.3h5.5l5.6-.4 5.6.8 5.6.1h5.6l5.6.1 5.5-.3h5.6l5.6.3 5.6-.6 5.6-.1 5.6.6 5.6-.4 5.5.7 5.6-.1 5.6-.5 5.6.5 5.6-.1 5.6-.7 5.5.7 5.6-.3 5.6-.3 5.6.6 5.6-1.2 5.6 1.1 5.5.1 5.6-.5h5.6l5.6.1 5.6.5 5.6-.2 5.5.2 5.6-.2 5.6-.1h5.6l5.6.5 5.6-1.4 5.5 1.3 5.6-.3 5.6-.2 5.6-.8" fill="none" color="#000"/><text transform="translate(279.8 485.9)" stroke="none" fill="#000" font-family="Arial" font-size="12" text-anchor="end" color="#000"><tspan>pages</tspan></text><path stroke="#009E73" d="M288.1 482h42.2M62.2 126l5.6-76.8 5.6 23.7 5.6 7.7 5.5-2.8 5.6-7.2 5.6 9.4 5.6-6.3 5.6-1.4 5.6 4.1 5.5 2.5 5.6-9.4 5.6 4 5.6 4.5 5.6 11.8 5.6-19.1 5.5 11.3 5.6-26.9 5.6 24.4 5.6-1.8 5.6-11.4 5.6 10.8 5.5-.5 5.6 12.4 5.6-5.2 5.6-9.2 5.6 14.8L213 76l5.5-1.7 5.6-9.1 5.6 9.4 5.6 1.3 5.6-.3 5.6 8.7 5.6-15.9 5.5 17.7 5.6-9.7 5.6 14.1 5.6-2.7 5.6-7.7 5.6-.6 5.5 9.8 5.6-14.6 5.6 9.1 5.6-10.9 5.6 3 5.6-12.4 5.5 22.1 5.6-10.6 5.6-8.9 5.6 18.1 5.6 5.4 5.6-6.7 5.5 3.3 5.6-31.4 5.6 20.7 5.6 3.6 5.6-4 5.6-.9 5.5 11.9 5.6-7.7 5.6-3.7 5.6-5.6 5.6.2 5.6 5.9 5.5-2.1 5.6 3.9 5.6-2.2 5.6 1.7 5.6-10.2 5.6 8.7 5.6-9 5.5 23.9 5.6-24.3 5.6 15.9 5.6-16.1 5.6 18.7 5.6 4.8 5.5-12.7 5.6 7.1 5.6 5.7 5.6-11.7 5.6 6.3 5.6-3.2 5.5-15.3 5.6 66.9 5.6-106 5.6 45.2 5.6 18.1 5.6-15 5.5 9.5 5.6 3.8 5.6 3.6 5.6-10.4 5.6-1.8 5.6-3.8 5.5-1.6 5.6-2.4 5.6 2.9 5.6-16.5" fill="none" color="#000"/><text transform="translate(479.7 467.9)" stroke="none" fill="#000" font-family="Arial" font-size="12" text-anchor="end" color="#000"><tspan>score p10=2017</tspan></text><path stroke="#56B4E9" d="M488 464h42.2m-468-350.2H615" fill="none" color="#000"/><g><text transform="translate(479.7 485.9)" stroke="none" fill="#000" font-family="Arial" font-size="12" text-anchor="end" color="#000"><tspan>score median=4000</tspan></text><path stroke="#E69F00" d="M488 482h42.2" fill="none" color="#000"/></g><g fill="none" color="#000" stroke="currentColor"><path stroke="#000" d="M62.2 18.1V428H615V18.1H62.2z"/></g></svg>

<?xml version="1.0" encoding="utf-8"  standalone="no"?>
<svg 
 width="640" height="500"
 viewBox="0 0 640 500"
 xmlns="http://www.w3.org/2000/svg"
 xmlns:xlink="http://www.w3.org/1999/xlink"
>

<title>Gnuplot</title>
<desc>Produced by GNUPLOT 5.4 patchlevel 0 </desc>

<g id="gnuplot_canvas">

<rect x="0" y="0" width="640" height="500" fill="#ffffff"/>
<defs>

	<circle id='gpDot' r='0.5' stroke-width='0.5' stroke='currentColor'/>
	<path id='gpPt0' stroke-width='0.222' stroke='currentColor' d='M-1,0 h2 M0,-1 v2'/>
	<path id='gpPt1' stroke-width='0.222' stroke='currentColor' d='M-1,-1 L1,1 M1,-1 L-1,1'/>
	<path id='gpPt2' stroke-width='0.222' stroke='currentColor' d='M-1,0 L1,0 M0,-1 L0,1 M-1,-1 L1,1 M-1,1 L1,-1'/>
	<rect id='gpPt3' stroke-width='0.222' stroke='currentColor' x='-1' y='-1' width='2' height='2'/>
	<rect id='gpPt4' stroke-width='0.222' stroke='currentColor' fill='currentColor' x='-1' y='-1' width='2' height='2'/>
	<circle id='gpPt5' stroke-width='0.222' stroke='currentColor' cx='0' cy='0' r='1'/>
	<use xlink:href='#gpPt5' id='gpPt6' fill='currentColor' stroke='none'/>
	<path id='gpPt7' stroke-width='0.222' stroke='currentColor' d='M0,-1.33 L-1.33,0.67 L1.33,0.67 z'/>
	<use xlink:href='#gpPt7' id='gpPt8' fill='currentColor' stroke='none'/>
	<use xlink:href='#gpPt7' id='gpPt9' stroke='currentColor' transform='rotate(180)'/>
	<use xlink:href='#gpPt9' id='gpPt10' fill='currentColor' stroke='none'/>
	<use xlink:href='#gpPt3' id='gpPt11' stroke='currentColor' transform='rotate(45)'/>
	<use xlink:href='#gpPt11' id='gpPt12' fill='currentColor' stroke='none'/>
	<path id='gpPt13' stroke-width='0.222' stroke='currentColor' d='M0,1.330 L1.265,0.411 L0.782,-1.067 L-0.782,-1.076 L-1.265,0.411 z'/>
	<use xlink:href='#gpPt13' id='gpPt14' fill='currentColor' stroke='none'/>
	<filter id='textbox' filterUnits='objectBoundingBox' x='0' y='0' height='1' width='1'>
	  <feFlood flood-color='#FFFFFF' flood-opacity='1' result='bgnd'/>
	  <feComposite in='SourceGraphic' in2='bgnd' operator='atop'/>
	</filter>
	<filter id='greybox' filterUnits='objectBoundingBox' x='0' y='0' height='1' width='1'>
	  <feFlood flood-color='lightgrey' flood-opacity='1' result='grey'/>
	  <feComposite in='SourceGraphic' in2='grey' operator='atop'/>
	</filter>
</defs>
<g fill="none" color="#FFFFFF" stroke="currentColor" stroke-width="1.00" stroke-linecap="butt" stroke-linejoin="miter">
</g>
<g fill="none" color="black" stroke="currentColor" stroke-width="1.00" stroke-linecap="butt" stroke-linejoin="miter">
	<path stroke='black'  d='M62.2,353.7 L71.2,353.7 M615.0,353.7 L606.0,353.7  '/>	<g transform="translate(53.9,357.6)" stroke="none" fill="black" font-family="Arial" font-size="12.00"  text-anchor="end">
		<text><tspan font-family="Arial" > 500</tspan></text>
	</g>
</g>
<g fill="none" color="black" stroke="currentColor" stroke-width="1.00" stroke-linecap="butt" stroke-linejoin="miter">
	<path stroke='black'  d='M62.2,274.6 L71.2,274.6 M615.0,274.6 L606.0,274.6  '/>	<g transform="translate(53.9,278.5)" stroke="none" fill="black" font-family="Arial" font-size="12.00"  text-anchor="end">
		<text><tspan font-family="Arial" > 1000</tspan></text>
	</g>
</g>
<g fill="none" color="black" stroke="currentColor" stroke-width="1.00" stroke-linecap="butt" stroke-linejoin="miter">
	<path stroke='black'  d='M62.2,195.6 L71.2,195.6 M615.0,195.6 L606.0,195.6  '/>	<g transform="translate(53.9,199.5)" stroke="none" fill="black" font-family="Arial" font-size="12.00"  text-anchor="end">
		<text><tspan font-family="Arial" > 1500</tspan></text>
	</g>
</g>
<g fill="none" color="black" stroke="currentColor" stroke-width="1.00" stroke-linecap="butt" stroke-linejoin="miter">
	<path stroke='black'  d='M62.2,116.5 L71.2,116.5 M615.0,116.5 L606.0,116.5  '/>	<g transform="translate(53.9,120.4)" stroke="none" fill="black" font-family="Arial" font-size="12.00"  text-anchor="end">
		<text><tspan font-family="Arial" > 2000</tspan></text>
	</g>
</g>
<g fill="none" color="black" stroke="currentColor" stroke-width="1.00" stroke-linecap="butt" stroke-linejoin="miter">
	<path stroke='black'  d='M62.2,37.4 L71.2,37.4 M615.0,37.4 L606.0,37.4  '/>	<g transform="translate(53.9,41.3)" stroke="none" fill="black" font-family="Arial" font-size="12.00"  text-anchor="end">
		<text><tspan font-family="Arial" > 2500</tspan></text>
	</g>
</g>
<g fill="none" color="black" stroke="currentColor" stroke-width="1.00" stroke-linecap="butt" stroke-linejoin="miter">
	<path stroke='black'  d='M62.2,428.0 L62.2,419.0 M62.2,18.1 L62.2,27.1  '/>	<g transform="translate(62.2,449.9)" stroke="none" fill="black" font-family="Arial" font-size="12.00"  text-anchor="middle">
		<text><tspan font-family="Arial" > 0</tspan></text>
	</g>
</g>
<g fill="none" color="black" stroke="currentColor" stroke-width="1.00" stroke-linecap="butt" stroke-linejoin="miter">
	<path stroke='black'  d='M118.0,428.0 L118.0,419.0 M118.0,18.1 L118.0,27.1  '/>	<g transform="translate(118.0,449.9)" stroke="none" fill="black" font-family="Arial" font-size="12.00"  text-anchor="middle">
		<text><tspan font-family="Arial" > 10</tspan></text>
	</g>
</g>
<g fill="none" color="black" stroke="currentColor" stroke-width="1.00" stroke-linecap="butt" stroke-linejoin="miter">
	<path stroke='black'  d='M173.9,428.0 L173.9,419.0 M173.9,18.1 L173.9,27.1  '/>	<g transform="translate(173.9,449.9)" stroke="none" fill="black" font-family="Arial" font-size="12.00"  text-anchor="middle">
		<text><tspan font-family="Arial" > 20</tspan></text>
	</g>
</g>
<g fill="none" color="black" stroke="currentColor" stroke-width="1.00" stroke-linecap="butt" stroke-linejoin="miter">
	<path stroke='black'  d='M229.7,428.0 L229.7,419.0 M229.7,18.1 L229.7,27.1  '/>	<g transform="translate(229.7,449.9)" stroke="none" fill="black" font-family="Arial" font-size="12.00"  text-anchor="middle">
		<text><tspan font-family="Arial" > 30</tspan></text>
	</g>
</g>
<g fill="none" color="black" stroke="currentColor" stroke-width="1.00" stroke-linecap="butt" stroke-linejoin="miter">
	<path stroke='black'  d='M285.6,428.0 L285.6,419.0 M285.6,18.1 L285.6,27.1  '/>	<g transform="translate(285.6,449.9)" stroke="none" fill="black" font-family="Arial" font-size="12.00"  text-anchor="middle">
		<text><tspan font-family="Arial" > 40</tspan></text>
	</g>
</g>
<g fill="none" color="black" stroke="currentColor" stroke-width="1.00" stroke-linecap="butt" stroke-linejoin="miter">
	<path stroke='black'  d='M341.4,428.0 L341.4,419.0 M341.4,18.1 L341.4,27.1  '/>	<g transform="translate(341.4,449.9)" stroke="none" fill="black" font-family="Arial" font-size="12.00"  text-anchor="middle">
		<text><tspan font-family="Arial" > 50</tspan></text>
	</g>
</g>
<g fill="none" color="black" stroke="currentColor" stroke-width="1.00" stroke-linecap="butt" stroke-linejoin="miter">
	<path stroke='black'  d='M397.2,428.0 L397.2,419.0 M397.2,18.1 L397.2,27.1  '/>	<g transform="translate(397.2,449.9)" stroke="none" fill="black" font-family="Arial" font-size="12.00"  text-anchor="middle">
		<text><tspan font-family="Arial" > 60</tspan></text>
	</g>
</g>
<g fill="none" color="black" stroke="currentColor" stroke-width="1.00" stroke-linecap="butt" stroke-linejoin="miter">
	<path stroke='black'  d='M453.1,428.0 L453.1,419.0 M453.1,18.1 L453.1,27.1  '/>	<g transform="translate(453.1,449.9)" stroke="none" fill="black" font-family="Arial" font-size="12.00"  text-anchor="middle">
		<text><tspan font-family="Arial" > 70</tspan></text>
	</g>
</g>
<g fill="none" color="black" stroke="currentColor" stroke-width="1.00" stroke-linecap="butt" stroke-linejoin="miter">
	<path stroke='black'  d='M508.9,428.0 L508.9,419.0 M508.9,18.1 L508.9,27.1  '/>	<g transform="translate(508.9,449.9)" stroke="none" fill="black" font-family="Arial" font-size="12.00"  text-anchor="middle">
		<text><tspan font-family="Arial" > 80</tspan></text>
	</g>
</g>
<g fill="none" color="black" stroke="currentColor" stroke-width="1.00" stroke-linecap="butt" stroke-linejoin="miter">
	<path stroke='black'  d='M564.7,428.0 L564.7,419.0 M564.7,18.1 L564.7,27.1  '/>	<g transform="translate(564.7,449.9)" stroke="none" fill="black" font-family="Arial" font-size="12.00"  text-anchor="middle">
		<text><tspan font-family="Arial" > 90</tspan></text>
	</g>
</g>
<g fill="none" color="black" stroke="currentColor" stroke-width="1.00" stroke-linecap="butt" stroke-linejoin="miter">
</g>
<g fill="none" color="black" stroke="currentColor" stroke-width="1.00" stroke-linecap="butt" stroke-linejoin="miter">
	<path stroke='black'  d='M62.2,18.1 L62.2,428.0 L615.0,428.0 L615.0,18.1 L62.2,18.1 Z  '/></g>
<g fill="none" color="black" stroke="currentColor" stroke-width="1.00" stroke-linecap="butt" stroke-linejoin="miter">
</g>
	<g id="gnuplot_plot_1" ><title>empty</title>
<g fill="none" color="black" stroke="currentColor" stroke-width="1.00" stroke-linecap="butt" stroke-linejoin="miter">
	<g transform="translate(279.8,467.9)" stroke="none" fill="black" font-family="Arial" font-size="12.00"  text-anchor="end">
		<text><tspan font-family="Arial" >empty</tspan></text>
	</g>
</g>
<g fill="none" color="black" stroke="currentColor" stroke-width="1.00" stroke-linecap="butt" stroke-linejoin="miter">
	<path stroke='rgb(148,   0, 211)'  d='M288.1,464.0 L330.3,464.0 M62.2,419.3 L67.8,419.8 L73.4,419.6 L79.0,418.1 L84.5,419.3 L90.1,419.8
		L95.7,419.8 L101.3,419.4 L106.9,419.4 L112.5,419.5 L118.0,419.3 L123.6,419.6 L129.2,419.5 L134.8,418.4
		L140.4,419.4 L146.0,419.2 L151.5,419.5 L157.1,419.5 L162.7,419.8 L168.3,419.4 L173.9,419.4 L179.5,419.3
		L185.0,419.8 L190.6,419.5 L196.2,419.8 L201.8,419.2 L207.4,419.5 L213.0,419.8 L218.5,419.2 L224.1,419.1
		L229.7,418.6 L235.3,419.4 L240.9,419.3 L246.5,419.2 L252.1,418.8 L257.6,418.7 L263.2,418.8 L268.8,419.3
		L274.4,420.0 L280.0,419.6 L285.6,419.4 L291.1,419.8 L296.7,419.1 L302.3,419.6 L307.9,419.4 L313.5,419.6
		L319.1,419.5 L324.6,418.9 L330.2,419.1 L335.8,416.5 L341.4,418.9 L347.0,418.9 L352.6,419.1 L358.1,418.5
		L363.7,419.3 L369.3,419.7 L374.9,419.9 L380.5,419.5 L386.1,419.2 L391.6,419.2 L397.2,418.8 L402.8,419.6
		L408.4,419.7 L414.0,419.7 L419.6,419.8 L425.1,419.5 L430.7,419.5 L436.3,419.8 L441.9,419.2 L447.5,419.1
		L453.1,419.7 L458.7,419.3 L464.2,420.0 L469.8,419.9 L475.4,419.4 L481.0,419.9 L486.6,419.8 L492.2,419.1
		L497.7,419.8 L503.3,419.5 L508.9,419.2 L514.5,419.8 L520.1,418.6 L525.7,419.7 L531.2,419.8 L536.8,419.3
		L542.4,419.3 L548.0,419.4 L553.6,419.9 L559.2,419.7 L564.7,419.9 L570.3,419.7 L575.9,419.6 L581.5,419.6
		L587.1,420.1 L592.7,418.7 L598.2,420.0 L603.8,419.7 L609.4,419.5 L615.0,418.7  '/></g>
	</g>
	<g id="gnuplot_plot_2" ><title>pages</title>
<g fill="none" color="black" stroke="currentColor" stroke-width="1.00" stroke-linecap="butt" stroke-linejoin="miter">
	<g transform="translate(279.8,485.9)" stroke="none" fill="black" font-family="Arial" font-size="12.00"  text-anchor="end">
		<text><tspan font-family="Arial" >pages</tspan></text>
	</g>
</g>
<g fill="none" color="black" stroke="currentColor" stroke-width="1.00" stroke-linecap="butt" stroke-linejoin="miter">
	<path stroke='rgb(  0, 158, 115)'  d='M288.1,482.0 L330.3,482.0 M62.2,126.0 L67.8,49.2 L73.4,72.9 L79.0,80.6 L84.5,77.8 L90.1,70.6
		L95.7,80.0 L101.3,73.7 L106.9,72.3 L112.5,76.4 L118.0,78.9 L123.6,69.5 L129.2,73.5 L134.8,78.0
		L140.4,89.8 L146.0,70.7 L151.5,82.0 L157.1,55.1 L162.7,79.5 L168.3,77.7 L173.9,66.3 L179.5,77.1
		L185.0,76.6 L190.6,89.0 L196.2,83.8 L201.8,74.6 L207.4,89.4 L213.0,76.0 L218.5,74.3 L224.1,65.2
		L229.7,74.6 L235.3,75.9 L240.9,75.6 L246.5,84.3 L252.1,68.4 L257.6,86.1 L263.2,76.4 L268.8,90.5
		L274.4,87.8 L280.0,80.1 L285.6,79.5 L291.1,89.3 L296.7,74.7 L302.3,83.8 L307.9,72.9 L313.5,75.9
		L319.1,63.5 L324.6,85.6 L330.2,75.0 L335.8,66.1 L341.4,84.2 L347.0,89.6 L352.6,82.9 L358.1,86.2
		L363.7,54.8 L369.3,75.5 L374.9,79.1 L380.5,75.1 L386.1,74.2 L391.6,86.1 L397.2,78.4 L402.8,74.7
		L408.4,69.1 L414.0,69.3 L419.6,75.2 L425.1,73.1 L430.7,77.0 L436.3,74.8 L441.9,76.5 L447.5,66.3
		L453.1,75.0 L458.7,66.0 L464.2,89.9 L469.8,65.6 L475.4,81.5 L481.0,65.4 L486.6,84.1 L492.2,88.9
		L497.7,76.2 L503.3,83.3 L508.9,89.0 L514.5,77.3 L520.1,83.6 L525.7,80.4 L531.2,65.1 L536.8,132.0
		L542.4,26.0 L548.0,71.2 L553.6,89.3 L559.2,74.3 L564.7,83.8 L570.3,87.6 L575.9,91.2 L581.5,80.8
		L587.1,79.0 L592.7,75.2 L598.2,73.6 L603.8,71.2 L609.4,74.1 L615.0,57.6  '/></g>
	</g>
	<g id="gnuplot_plot_3" ><title>score p10=2017</title>
<g fill="none" color="black" stroke="currentColor" stroke-width="1.00" stroke-linecap="butt" stroke-linejoin="miter">
	<g transform="translate(479.7,467.9)" stroke="none" fill="black" font-family="Arial" font-size="12.00"  text-anchor="end">
		<text><tspan font-family="Arial" >score p10=2017</tspan></text>
	</g>
</g>
<g fill="none" color="black" stroke="currentColor" stroke-width="1.00" stroke-linecap="butt" stroke-linejoin="miter">
	<path stroke='rgb( 86, 180, 233)'  d='M488.0,464.0 L530.2,464.0 M62.2,113.8 L67.8,113.8 L73.4,113.8 L79.0,113.8 L84.5,113.8 L90.1,113.8
		L95.7,113.8 L101.3,113.8 L106.9,113.8 L112.5,113.8 L118.0,113.8 L123.6,113.8 L129.2,113.8 L134.8,113.8
		L140.4,113.8 L146.0,113.8 L151.5,113.8 L157.1,113.8 L162.7,113.8 L168.3,113.8 L173.9,113.8 L179.5,113.8
		L185.0,113.8 L190.6,113.8 L196.2,113.8 L201.8,113.8 L207.4,113.8 L213.0,113.8 L218.5,113.8 L224.1,113.8
		L229.7,113.8 L235.3,113.8 L240.9,113.8 L246.5,113.8 L252.1,113.8 L257.6,113.8 L263.2,113.8 L268.8,113.8
		L274.4,113.8 L280.0,113.8 L285.6,113.8 L291.1,113.8 L296.7,113.8 L302.3,113.8 L307.9,113.8 L313.5,113.8
		L319.1,113.8 L324.6,113.8 L330.2,113.8 L335.8,113.8 L341.4,113.8 L347.0,113.8 L352.6,113.8 L358.1,113.8
		L363.7,113.8 L369.3,113.8 L374.9,113.8 L380.5,113.8 L386.1,113.8 L391.6,113.8 L397.2,113.8 L402.8,113.8
		L408.4,113.8 L414.0,113.8 L419.6,113.8 L425.1,113.8 L430.7,113.8 L436.3,113.8 L441.9,113.8 L447.5,113.8
		L453.1,113.8 L458.7,113.8 L464.2,113.8 L469.8,113.8 L475.4,113.8 L481.0,113.8 L486.6,113.8 L492.2,113.8
		L497.7,113.8 L503.3,113.8 L508.9,113.8 L514.5,113.8 L520.1,113.8 L525.7,113.8 L531.2,113.8 L536.8,113.8
		L542.4,113.8 L548.0,113.8 L553.6,113.8 L559.2,113.8 L564.7,113.8 L570.3,113.8 L575.9,113.8 L581.5,113.8
		L587.1,113.8 L592.7,113.8 L598.2,113.8 L603.8,113.8 L609.4,113.8 L615.0,113.8  '/></g>
	</g>
	<g id="gnuplot_plot_4" ><title>score median=4000</title>
<g fill="none" color="black" stroke="currentColor" stroke-width="1.00" stroke-linecap="butt" stroke-linejoin="miter">
	<g transform="translate(479.7,485.9)" stroke="none" fill="black" font-family="Arial" font-size="12.00"  text-anchor="end">
		<text><tspan font-family="Arial" >score median=4000</tspan></text>
	</g>
</g>
<g fill="none" color="black" stroke="currentColor" stroke-width="1.00" stroke-linecap="butt" stroke-linejoin="miter">
	<path stroke='rgb(230, 159,   0)'  d='M488.0,482.0 L530.2,482.0  '/></g>
	</g>
<g fill="none" color="#FFFFFF" stroke="rgb(230, 159,   0)" stroke-width="2.00" stroke-linecap="butt" stroke-linejoin="miter">
</g>
<g fill="none" color="black" stroke="currentColor" stroke-width="2.00" stroke-linecap="butt" stroke-linejoin="miter">
</g>
<g fill="none" color="black" stroke="black" stroke-width="1.00" stroke-linecap="butt" stroke-linejoin="miter">
</g>
<g fill="none" color="black" stroke="currentColor" stroke-width="1.00" stroke-linecap="butt" stroke-linejoin="miter">
	<path stroke='black'  d='M62.2,18.1 L62.2,428.0 L615.0,428.0 L615.0,18.1 L62.2,18.1 Z  '/></g>
<g fill="none" color="black" stroke="currentColor" stroke-width="1.00" stroke-linecap="butt" stroke-linejoin="miter">
</g>
</g>
</svg>
